X:277
T:Cochonchine
M:2/4
L:1/8
K:CMaj
d2dd|BG Bd|dG Bd|dc AF|d2dd|BG Bd|dc AF|G4:|
B2BB|G2BB|c2cc|AFF2|d2dd|BG Bd|dc AF|G4:|
